X:1
T:Konrad Hagius, 
T:Psalmen Davids etc. (1604)
T:Ihr Himmel, höret meine Wort
T:Deuterom. 32
T:Ein ander gesang Moysis
%%score [ 1 2 3 4 ]
L:1/8
Q:1/4=240
M:none
K:C
V:1 treble nm="Midi_1"
V:2 treble nm="Midi_1"
V:3 treble-8 nm="Midi_1"
V:4 bass nm="Midi_1"
V:1
"^melodey" A8 A4 A4 | G8 A4 c8 | B4 c8 z16 | B8 A4 B4 | c4 B8 A8 | ^G4 A8 z16 | c8 B4 A4 | %7
w: Ihr Him- mel|hö- ret mei-|ne Wort|Der Er- den-|kreis an al-|len Ort|Thu fleis- sig|
 G8 F4 E8 | D4 E8 z16 | c8 B4 A4 | G8 F4 E8 | D4 E8 z16 | E8 A4 A4 | A4 B4 c8 | A8 ^G8 | z16 | %16
w: wer- den die-|se Stund|Wol- auf die|red auss mei-|nem Mund|Mein lehr wie|re- gen trief-|fe fein||
 ^G8 A4 B4 | c4 B8 A8 | ^G4 A16 x8 |] x16 | x16 | x24 | x24 |] %23
w: Wie tau flies-|se die re-|de mein.|||||
V:2
 E8 E4 E4 | E4 E4 F4 A4 x4 | G16 x12 | z16 | G8 ^F4 G4 x4 | G4 ^F4 G2 F2 E2 D2 x12 | E4 E4 ^C8 | %7
w: Ihr Him- mel|hö- ret mei- ne|Wort||Der Er- den-|kreis an al- * * *|* lem Ort|
 z16 x4 | A8 G4 F2 E2 x12 | D4 E4 D4 C4 | C4 A,4 A,8 x4 | z16 x12 | A8 G4 F2 E2 | D4 E4 D4 C4 | %14
w: |Thu fleis- * *|* sig wer- den|die- se Stund||Wol- auf * *|* die red auss|
 C4 A,4 A,8 | z16 | ^C8 E4 E4 | F2 E2 E8 D2 C2 x4 | D4 D4 E8 x12 |] z16 | E8 E4 G4 | %21
w: mei- nem Mund||Mein lehr wie|re- gen trief- * *|* fe fein||Wie tau flies-|
 G4 ^F4 G2 =F2 E2 D2 x8 | E4 E4 ^C16 |] %23
w: se die re- * * *|* de mein.|
V:3
 c8 c4 c4 | B2 G2 c8 f4 x4 | e4 d4 c8 x12 | z16 | d8 d4 d4 x4 | e4 d2 c2 B4 c4 x12 | B4 B4 A8 | %7
w: Ihr Him- mel|* * hö- ret|mei- ne Wort||Der Er- den-|kreis * * * an|al- lem Ort|
 z16 x4 | e8 e4 c4 x12 | B2 d2 c2 B2 A4 A4 | G4 F4 E8 x4 | z16 x12 | e8 e4 c4 | B2 d2 c2 B2 A4 A4 | %14
w: |Thu fleis- sig|wer- * * * * den|die- se Stund||Wol- auf die|red * * * * auss|
 G4 F4 E8 | z16 | A8 c4 c4 | c4 B4 A12 | A4 B8 z16 |] B8 ^c4 d4 | e4 d2 c2 B4 c4 | B4 B4 A16 | %22
w: mei- nem Mund||Mein lehr wie|re- gen trief-|fe fein|Wie tau flies-|se * * * die|re- de mein.|
 x24 |] %23
w: |
V:4
 A,,8 A,,4 A,,4 | E,4 C,4 F,8 x4 | G,8 C,8 x12 | z16 | G,8 D,4 G,4 x4 | C,4 D,4 E,8 x12 | %6
w: Ihr Him- mel|hö- ret mei-|ne Wort||Der Er- den-|kreis an al-|
 E,8 A,,8 | z16 x4 | A,8 E,4 F,4 x12 | G,4 C,4 D,4 A,,2 B,,2 | C,4 D,4 A,,8 x4 | z16 x12 | %12
w: lem Ort||Thu fleis- sig|wer- den die- * *|* se Stund||
 A,8 E,4 F,4 | G,4 C,4 D,4 A,,2 B,,2 | C,4 D,4 A,,8 | z16 | A,,8 A,,4 A,4 | A,4 G,4 F,12 | %18
w: Wol- auf die|red auss mei- * *|* nem Mund||Mein lehr wie|re- gen trief-|
 F,4 E,8 z16 |] E,8 A,4 G,4 | C,4 D,4 E,8 | E,8 A,,16 | x24 |] %23
w: fe fein|Wie tau flies-|se die re-|de mein.||

